symbolic/32x32/apps/io.elementary.code.svg

<svg xmlns="http://www.w3.org/2000/svg" width="32" height="32" version="1">
 <path style="opacity:0.2" d="M 27,29.6 V 4.4 C 27,3.6244 26.38675,3 25.625,3 H 6.375 C 5.61325,3 5,3.6244 5,4.4 V 29.6 C 5,30.3756 5.61325,31 6.375,31 h 19.25 C 26.38675,31 27,30.3756 27,29.6 Z"/>
 <path style="fill:#e4e4e4" d="M 27,28.6 V 3.4 C 27,2.6244 26.38675,2 25.625,2 H 6.375 C 5.61325,2 5,2.6244 5,3.4 V 28.6 C 5,29.3756 5.61325,30 6.375,30 h 19.25 C 26.38675,30 27,29.3756 27,28.6 Z"/>
 <path style="fill:#ffffff;opacity:0.2" d="M 6.375 2 C 5.61325 2 5 2.6247906 5 3.4003906 L 5 4.4003906 C 5 3.6247906 5.61325 3 6.375 3 L 25.625 3 C 26.38675 3 27 3.6247906 27 4.4003906 L 27 3.4003906 C 27 2.6247906 26.38675 2 25.625 2 L 6.375 2 z"/>
 <path style="opacity:0.1" d="m 14,12.96875 c -0.89872,9e-6 -1.892324,0.160004 -2.34375,0.4375 C 11.20896,13.680011 11,14.102499 11,14.6875 v 1.28125 c 0,0.348759 -0.16416,0.577502 -0.4375,0.75 C 10.293297,16.887506 9.55911,17.000004 9,17 v 1 c 1.101651,2e-6 2,0.364993 2,1.0625 v 1.09375 c 0,0.641256 0.2067,1.121244 0.625,1.40625 C 12.047435,21.851251 13.043299,21.992497 14,22 v -1.03125 c -0.476282,-0.0075 -1.476285,-0.0925 -1.6875,-0.25 C 12.101277,20.561249 12,20.338753 12,20.03125 v -1.1875 C 12,18.536949 11.885913,17.635005 10.9375,17.5 V 17.4375 C 11.885913,17.291252 12,16.56398 12,16.125 v -1.1875 c 0,-0.307498 0.101283,-0.502491 0.3125,-0.65625 C 12.527857,14.123755 13.52786,14.018757 14,14 Z m 4,0 V 14 c 0.47214,0.01876 1.472143,0.123755 1.6875,0.28125 C 19.898717,14.435009 20,14.630002 20,14.9375 v 1.1875 c 0,0.43898 0.114087,1.166252 1.0625,1.3125 V 17.5 C 20.114087,17.635005 20,18.536949 20,18.84375 v 1.1875 c 0,0.307503 -0.101277,0.529999 -0.3125,0.6875 -0.211215,0.157499 -1.211218,0.2425 -1.6875,0.25 V 22 c 0.956701,-0.0075 1.952565,-0.148749 2.375,-0.4375 C 20.7933,21.277494 21,20.797506 21,20.15625 V 19.0625 C 21,18.364993 21.898349,18.000002 23,18 v -1 c -0.55911,4e-6 -1.293297,-0.112494 -1.5625,-0.28125 C 21.16416,16.546252 21,16.317509 21,15.96875 V 14.6875 C 21,14.102499 20.79104,13.680011 20.34375,13.40625 19.892324,13.128754 18.89872,12.968759 18,12.96875 Z"/>
 <path style="fill:#446f7d" d="m 14,11.96875 c -0.89872,9e-6 -1.892324,0.160004 -2.34375,0.4375 C 11.20896,12.680011 11,13.102499 11,13.6875 v 1.28125 c 0,0.348759 -0.16416,0.577502 -0.4375,0.75 C 10.293297,15.887506 9.55911,16.000004 9,16 v 1 c 1.101651,2e-6 2,0.364993 2,1.0625 v 1.09375 c 0,0.641256 0.2067,1.121244 0.625,1.40625 C 12.047435,20.851251 13.043299,20.992497 14,21 v -1.03125 c -0.476282,-0.0075 -1.476285,-0.0925 -1.6875,-0.25 C 12.101277,19.561249 12,19.338753 12,19.03125 v -1.1875 C 12,17.536949 11.885913,16.635005 10.9375,16.5 V 16.4375 C 11.885913,16.291252 12,15.56398 12,15.125 v -1.1875 c 0,-0.307498 0.101283,-0.502491 0.3125,-0.65625 C 12.527857,13.123755 13.52786,13.018757 14,13 Z m 4,0 V 13 c 0.47214,0.01876 1.472143,0.123755 1.6875,0.28125 C 19.898717,13.435009 20,13.630002 20,13.9375 v 1.1875 c 0,0.43898 0.114087,1.166252 1.0625,1.3125 V 16.5 C 20.114087,16.635005 20,17.536949 20,17.84375 v 1.1875 c 0,0.307503 -0.101277,0.529999 -0.3125,0.6875 -0.211215,0.157499 -1.211218,0.2425 -1.6875,0.25 V 21 c 0.956701,-0.0075 1.952565,-0.148749 2.375,-0.4375 C 20.7933,20.277494 21,19.797506 21,19.15625 V 18.0625 C 21,17.364993 21.898349,17.000002 23,17 v -1 c -0.55911,4e-6 -1.293297,-0.112494 -1.5625,-0.28125 C 21.16416,15.546252 21,15.317509 21,14.96875 V 13.6875 C 21,13.102499 20.79104,12.680011 20.34375,12.40625 19.892324,12.128754 18.89872,11.968759 18,11.96875 Z"/>
</svg>

<svg xmlns="http://www.w3.org/2000/svg" width="32" height="32" version="1"><path style="opacity:.2" d="M27 29.6V4.4c0-.776-.613-1.4-1.375-1.4H6.375C5.613 3 5 3.624 5 4.4v25.2c0 .776.613 1.4 1.375 1.4h19.25c.762 0 1.375-.624 1.375-1.4z"/><path style="fill:#e4e4e4" d="M27 28.6V3.4c0-.776-.613-1.4-1.375-1.4H6.375C5.613 2 5 2.624 5 3.4v25.2c0 .776.613 1.4 1.375 1.4h19.25c.762 0 1.375-.624 1.375-1.4z"/><path style="fill:#fff;opacity:.2" d="M6.375 2C5.613 2 5 2.625 5 3.4v1C5 3.625 5.613 3 6.375 3h19.25C26.387 3 27 3.625 27 4.4v-1c0-.775-.613-1.4-1.375-1.4H6.375z"/><path style="opacity:.1" d="M14 12.969c-.899 0-1.892.16-2.344.437-.447.274-.656.696-.656 1.281v1.282c0 .349-.164.577-.438.75C10.293 16.888 9.56 17 9 17v1c1.102 0 2 .365 2 1.063v1.093c0 .642.207 1.121.625 1.407.422.288 1.418.43 2.375.437v-1.031c-.476-.008-1.476-.093-1.688-.25-.21-.158-.312-.38-.312-.688v-1.187c0-.307-.114-1.209-1.063-1.344v-.063c.949-.146 1.063-.873 1.063-1.312v-1.188c0-.307.101-.502.313-.656.215-.157 1.215-.262 1.687-.281zm4 0V14c.472.019 1.472.124 1.688.281.21.154.312.349.312.656v1.188c0 .439.114 1.166 1.063 1.313v.062c-.949.135-1.063 1.037-1.063 1.344v1.187c0 .308-.101.53-.313.688-.21.157-1.21.242-1.687.25V22c.957-.007 1.953-.149 2.375-.438.418-.285.625-.764.625-1.406v-1.093c0-.698.898-1.063 2-1.063v-1c-.56 0-1.293-.112-1.563-.281-.273-.173-.437-.401-.437-.75v-1.281c0-.586-.209-1.008-.656-1.282-.452-.277-1.445-.437-2.344-.437z"/><path style="fill:#446f7d" d="M14 11.969c-.899 0-1.892.16-2.344.437-.447.274-.656.696-.656 1.281v1.282c0 .349-.164.577-.438.75C10.293 15.888 9.56 16 9 16v1c1.102 0 2 .365 2 1.063v1.093c0 .642.207 1.121.625 1.407.422.288 1.418.43 2.375.437v-1.031c-.476-.008-1.476-.093-1.688-.25-.21-.158-.312-.38-.312-.688v-1.187c0-.307-.114-1.209-1.063-1.344v-.063c.949-.146 1.063-.873 1.063-1.312v-1.188c0-.307.101-.502.313-.656.215-.157 1.215-.262 1.687-.281zm4 0V13c.472.019 1.472.124 1.688.281.21.154.312.349.312.656v1.188c0 .439.114 1.166 1.063 1.313v.062c-.949.135-1.063 1.037-1.063 1.344v1.187c0 .308-.101.53-.313.688-.21.157-1.21.242-1.687.25V21c.957-.007 1.953-.149 2.375-.438.418-.285.625-.764.625-1.406v-1.093c0-.698.898-1.063 2-1.063v-1c-.56 0-1.293-.112-1.563-.281-.273-.173-.437-.401-.437-.75v-1.281c0-.586-.209-1.008-.656-1.282-.452-.277-1.445-.437-2.344-.437z"/></svg>
